X:093
T:The Humours of Glen              
B:Thomas Robertson's Ms Music Book 1819
N:Adjusted by Nigel Gatherer
Z:Nigel Gatherer
M:4/4
L:1/8
K:Bb
F|BcBA BFFB|dedc dAFA|BcBA BFdF|E/E/E FA B2 B:|
F|FB B/B/B B2 Bd|Bcde fdBd|ec c/c/c dBFB|AFFA B2 B:|
d|AFcF dFcF|AFcF AFFd|AFcF dFcF|EFGA B2 Bd|
AFcF dFcF|AFcF AFFA|fgef deBF|EFGA B2 B:|
a|b2 bg a2 af|g2 ge fdBa|b2 bg a2 af|g2 ge f2 fa|
bbbg aaaf|ggge fdBf|gefd AFdF|E/E/E FA B2 B:|
<end>
<start>
